src/images/svg/symbols/cad-chf.svg

<svg width="32" height="32" viewBox="0 0 32 32" fill="none" xmlns="http://www.w3.org/2000/svg">
<path d="M18 4H6V20H18V4Z" fill="white"/>
<path d="M18 4H22C23.1046 4 24 4.89543 24 6V18C24 19.1046 23.1046 20 22 20H18V4Z" fill="#F44336"/>
<path d="M2 4H6V20H2C0.89543 20 0 19.1046 0 18V6C0 4.89543 0.89543 4 2 4Z" fill="#F44336"/>
<path d="M12.0011 7.05933V7.06123L12.6732 8.3408C12.764 8.51404 12.9609 8.60023 13.1473 8.54842L13.7855 8.37114L13.3687 10.8334C13.3334 11.0419 13.5912 11.1648 13.7265 11.0039L14.7026 9.84347L14.8021 10.3006C14.8538 10.5378 15.0921 10.6813 15.3217 10.6134L16.3613 10.3062L16.178 11.7025C16.1546 11.8804 16.245 12.0538 16.403 12.134L16.9665 12.4202L14.511 13.8456C14.2567 13.9932 14.1453 14.3064 14.2478 14.5851L14.4577 15.1555L12.3527 14.9729C12.2363 14.9628 12.1372 15.058 12.1406 15.1767L12.207 17.4646H11.7932L11.8595 15.1768C11.8629 15.0581 11.7638 14.9629 11.6473 14.973L9.54336 15.1555L9.75326 14.5851C9.85587 14.3064 9.7444 13.9933 9.49006 13.8456L7.03461 12.4202L7.59804 12.1341C7.75606 12.0538 7.84653 11.8804 7.82314 11.7025L7.63981 10.3062L8.67936 10.6135C8.909 10.6813 9.14731 10.5379 9.19897 10.3007L9.29853 9.84352L10.2746 11.004C10.4099 11.1648 10.6677 11.0419 10.6325 10.8334L10.2156 8.37114L10.8538 8.54842C11.0402 8.60018 11.2371 8.51399 11.3281 8.3408L12.0001 7.06123L12.0006 7.06028L12.0011 7.05933Z" fill="#F44336"/>
<path fill-rule="evenodd" clip-rule="evenodd" d="M22 5H2C1.44772 5 1 5.44772 1 6V18C1 18.5523 1.44772 19 2 19H22C22.5523 19 23 18.5523 23 18V6C23 5.44771 22.5523 5 22 5ZM2 4C0.895431 4 0 4.89543 0 6V18C0 19.1046 0.89543 20 2 20H22C23.1046 20 24 19.1046 24 18V6C24 4.89543 23.1046 4 22 4H2Z" fill="black" fill-opacity="0.04"/>
<path d="M30 12H10C8.89543 12 8 12.8954 8 14V26C8 27.1046 8.89543 28 10 28H30C31.1046 28 32 27.1046 32 26V14C32 12.8954 31.1046 12 30 12Z" fill="#F44336"/>
<path d="M24.5517 18.3185H21.6551V15.3759C21.6551 15.1438 21.4698 14.9556 21.2413 14.9556H18.7585C18.53 14.9556 18.3447 15.1438 18.3447 15.3759V18.3185H15.4482C15.2197 18.3185 15.0344 18.5067 15.0344 18.7389V21.261C15.0344 21.4932 15.2197 21.6814 15.4482 21.6814H18.3447V24.6239C18.3447 24.8561 18.53 25.0443 18.7585 25.0443H21.2413C21.4698 25.0443 21.6551 24.8561 21.6551 24.6239V21.6813H24.5517C24.7802 21.6813 24.9655 21.4931 24.9655 21.2609V18.7388C24.9655 18.5067 24.7802 18.3185 24.5517 18.3185Z" fill="white"/>
<path fill-rule="evenodd" clip-rule="evenodd" d="M30 13H10C9.44772 13 9 13.4477 9 14V26C9 26.5523 9.44772 27 10 27H30C30.5523 27 31 26.5523 31 26V14C31 13.4477 30.5523 13 30 13ZM10 12C8.89543 12 8 12.8954 8 14V26C8 27.1046 8.89543 28 10 28H30C31.1046 28 32 27.1046 32 26V14C32 12.8954 31.1046 12 30 12H10Z" fill="black" fill-opacity="0.04"/>
</svg>

<svg width="32" height="32" fill="none" xmlns="http://www.w3.org/2000/svg"><path d="M18 4H6v16h12V4Z" fill="#fff"/><path d="M18 4h4a2 2 0 0 1 2 2v12a2 2 0 0 1-2 2h-4V4ZM2 4h4v16H2a2 2 0 0 1-2-2V6a2 2 0 0 1 2-2ZM12.001 7.06v.001l.672 1.28c.091.173.288.26.474.207l.639-.177-.417 2.462c-.036.209.222.332.357.17l.977-1.16.1.458c.05.237.29.38.519.312l1.04-.307-.184 1.397a.422.422 0 0 0 .225.431l.564.286-2.456 1.426a.612.612 0 0 0-.263.74l.21.57-2.105-.183a.197.197 0 0 0-.212.204l.066 2.288h-.414l.067-2.288a.197.197 0 0 0-.213-.204l-2.104.182.21-.57a.611.611 0 0 0-.263-.74L7.035 12.42l.563-.286a.422.422 0 0 0 .225-.431l-.183-1.397 1.04.308a.413.413 0 0 0 .519-.313l.1-.457.976 1.16c.135.16.393.038.357-.17l-.416-2.463.638.177a.412.412 0 0 0 .474-.207L12 7.06l.001-.002Z" fill="#F44336"/><path fill-rule="evenodd" clip-rule="evenodd" d="M22 5H2a1 1 0 0 0-1 1v12a1 1 0 0 0 1 1h20a1 1 0 0 0 1-1V6a1 1 0 0 0-1-1ZM2 4a2 2 0 0 0-2 2v12a2 2 0 0 0 2 2h20a2 2 0 0 0 2-2V6a2 2 0 0 0-2-2H2Z" fill="#000" fill-opacity=".04"/><path d="M30 12H10a2 2 0 0 0-2 2v12a2 2 0 0 0 2 2h20a2 2 0 0 0 2-2V14a2 2 0 0 0-2-2Z" fill="#F44336"/><path d="M24.552 18.319h-2.897v-2.943a.417.417 0 0 0-.414-.42H18.76a.417.417 0 0 0-.414.42v2.943h-2.897a.417.417 0 0 0-.414.42v2.522c0 .232.186.42.414.42h2.897v2.943c0 .232.185.42.414.42h2.482a.417.417 0 0 0 .414-.42V21.68h2.897a.417.417 0 0 0 .413-.42v-2.522a.417.417 0 0 0-.413-.42Z" fill="#fff"/><path fill-rule="evenodd" clip-rule="evenodd" d="M30 13H10a1 1 0 0 0-1 1v12a1 1 0 0 0 1 1h20a1 1 0 0 0 1-1V14a1 1 0 0 0-1-1Zm-20-1a2 2 0 0 0-2 2v12a2 2 0 0 0 2 2h20a2 2 0 0 0 2-2V14a2 2 0 0 0-2-2H10Z" fill="#000" fill-opacity=".04"/></svg>
